public/assets/svg/release.svg

<svg width="38" height="38" viewBox="0 0 38 38" fill="none" xmlns="http://www.w3.org/2000/svg">
<path fill-rule="evenodd" clip-rule="evenodd" d="M18.24 38C9.6416 38 5.34237 38 2.67119 35.3288C4.73247e-07 32.6576 4.46389e-07 28.3584 6.73014e-08 19.7599L2.88847e-10 18.2399C-3.788e-07 9.64146 -7.09871e-07 5.34224 2.67119 2.67103C5.34237 7.08557e-07 9.64159 4.38787e-07 18.24 6.61497e-08L19.76 2.73897e-10C28.3584 -3.72368e-07 32.6576 -4.72371e-07 35.3288 2.67103C38 5.34219 38 9.64146 38 18.2399V19.7599C38 28.3584 38 32.6576 35.3288 35.3288C32.6576 38 28.3584 38 19.76 38H18.24Z" fill="#0077FF"/>
<path d="M21.9739 23.4181C20.9501 23.1623 20.2322 22.2465 20.2322 21.1961V8.82106C20.2322 7.62799 21.3596 6.75299 22.5225 7.04348L29.8867 8.88311C30.9105 9.13883 31.6284 10.0547 31.6284 11.1051V23.4801C31.6284 24.6732 30.501 25.5482 29.3381 25.2577L21.9739 23.4181Z" fill="white"/>
<path d="M8.11322 29.1163C7.08938 28.8606 6.37152 27.9447 6.37152 26.8943V14.5193C6.37152 13.3263 7.49887 12.4513 8.66176 12.7417L16.026 14.5814C17.0498 14.8371 17.7677 15.7529 17.7677 16.8033V29.1783C17.7677 30.3714 16.6403 31.2465 15.4774 30.9559L8.11322 29.1163Z" fill="white"/>
<path d="M15.043 26.2673C14.0192 26.0116 13.3013 25.0957 13.3013 24.0453V11.6704C13.3013 10.4773 14.4287 9.60225 15.5916 9.89274L22.9558 11.7324C23.9797 11.9881 24.6975 12.904 24.6975 13.9544V26.3293C24.6975 27.5225 23.5702 28.3974 22.4072 28.107L15.043 26.2673Z" fill="white"/>
<path d="M19.8638 27.4744C19.5413 27.3922 19.3118 27.1071 19.3005 26.7745L18.9801 17.3238C18.8875 16.0729 17.959 15.0782 16.9887 14.7852C16.9342 14.7688 16.8761 14.7909 16.8438 14.8378C16.811 14.8854 16.8237 14.9513 16.8694 14.9868C17.109 15.1722 17.7684 15.7775 17.7684 16.8215L17.7665 26.9429L19.8638 27.4744Z" fill="#2B71F6"/>
<path d="M26.7957 24.6228C26.4735 24.5421 26.2437 24.2578 26.2325 23.9258L25.912 14.4758C25.8194 13.225 24.8909 12.2302 23.9206 11.9373C23.8662 11.9208 23.808 11.943 23.7757 11.9898C23.7429 12.0375 23.7556 12.1034 23.8013 12.1388C24.0409 12.3243 24.7004 12.9296 24.7004 13.9735L24.6984 24.0984L26.7957 24.6228Z" fill="#2B71F6"/>
</svg>

<svg width="38" height="38" fill="none" xmlns="http://www.w3.org/2000/svg"><path fill-rule="evenodd" clip-rule="evenodd" d="M18.24 38c-8.598 0-12.898 0-15.569-2.671C0 32.658 0 28.359 0 19.759v-1.52C0 9.642 0 5.343 2.671 2.672 5.342 0 9.641 0 18.24 0h1.52c8.598 0 12.898 0 15.569 2.671C38 5.342 38 9.641 38 18.24v1.52c0 8.598 0 12.898-2.671 15.569C32.658 38 28.359 38 19.76 38h-1.52Z" fill="#07F"/><path d="M21.974 23.418a2.293 2.293 0 0 1-1.742-2.222V8.821a1.84 1.84 0 0 1 2.29-1.778l7.365 1.84a2.293 2.293 0 0 1 1.741 2.222V23.48a1.84 1.84 0 0 1-2.29 1.778l-7.364-1.84ZM8.113 29.116a2.293 2.293 0 0 1-1.741-2.222V14.52a1.84 1.84 0 0 1 2.29-1.777l7.364 1.84a2.293 2.293 0 0 1 1.742 2.221v12.375a1.84 1.84 0 0 1-2.29 1.778l-7.365-1.84Z" fill="#fff"/><path d="M15.043 26.267a2.293 2.293 0 0 1-1.742-2.222V11.67a1.84 1.84 0 0 1 2.29-1.777l7.365 1.84a2.293 2.293 0 0 1 1.742 2.221V26.33a1.84 1.84 0 0 1-2.29 1.778l-7.365-1.84Z" fill="#fff"/><path d="M19.864 27.474a.748.748 0 0 1-.564-.7l-.32-9.45c-.093-1.251-1.021-2.246-1.991-2.539a.13.13 0 0 0-.145.053.11.11 0 0 0 .025.149c.24.185.9.79.9 1.835l-.002 10.12 2.097.532ZM26.796 24.623a.744.744 0 0 1-.563-.697l-.321-9.45c-.093-1.251-1.021-2.246-1.991-2.539a.13.13 0 0 0-.145.053.11.11 0 0 0 .025.149c.24.185.9.79.9 1.835l-.003 10.124 2.098.525Z" fill="#2B71F6"/></svg>
